symbolic/64x64/apps/colorhug-refresh.svg

<svg xmlns="http://www.w3.org/2000/svg" width="64" height="64" version="1"><path style="opacity:.2" d="M4.05 32c-.011.334-.05.662-.05 1 0 15.512 12.488 28 28 28s28-12.488 28-28c0-.338-.039-.665-.05-1C59.42 47.042 47.172 59 32 59 16.824 59 4.576 47.042 4.05 32z"/><rect style="fill:#4f4f4f" width="56" height="56" x="4" y="4" rx="28" ry="28"/><g style="opacity:.2" transform="matrix(2 0 0 2 0 1)"><path d="M10.016 13.09A6 6 0 0 0 5 19a6 6 0 0 0 6 6 6 6 0 0 0 4.773-2.371 8 8 0 0 1-2.808-1.369A3 3 0 0 1 11 22a3 3 0 0 1-3-3 3 3 0 0 1 1.91-2.795A8 8 0 0 1 9.8 14.9a8 8 0 0 1 .216-1.81zM16 5a6 6 0 0 0-6 6 6 6 0 0 0 .338 1.957 8 8 0 0 1 2.672-1.772A3 3 0 0 1 13 11a3 3 0 0 1 3-3 3 3 0 0 1 3 3 3 3 0 0 1-.01.187 8 8 0 0 1 2.674 1.768A6 6 0 0 0 22 11a6 6 0 0 0-6-6z"/><circle cx="16" cy="11" r="2"/><circle cx="11" cy="19" r="2"/></g><path style="opacity:.1;fill:#fff" d="M32 4C16.488 4 4 16.488 4 32c0 .114.011.224.018.336C4.369 17.134 16.71 5 32 5c15.288 0 27.63 12.132 27.984 27.332.007-.11.016-.22.016-.332C60 16.488 47.512 4 32 4z"/><path style="fill:#e16262" d="M20.032 26.18A12 12 0 0 0 10 38a12 12 0 0 0 12 12 12 12 0 0 0 9.546-4.742 16 16 0 0 1-5.616-2.738A6 6 0 0 1 22 44a6 6 0 0 1-6-6 6 6 0 0 1 3.82-5.59 16 16 0 0 1-.218-2.61 16 16 0 0 1 .43-3.62z"/><path style="fill:#3facd2" d="M32 10a12 12 0 0 0-12 12 12 12 0 0 0 .676 3.914 16 16 0 0 1 5.344-3.542A6 6 0 0 1 26 22a6 6 0 0 1 6-6 6 6 0 0 1 6 6 6 6 0 0 1-.02.376 16 16 0 0 1 5.348 3.534A12 12 0 0 0 44 22a12 12 0 0 0-12-12z"/><circle style="fill:#8ccde4" cx="32" cy="22" r="4"/><circle style="fill:#eb9595" cx="22" cy="38" r="4"/><path style="opacity:.2" d="M63.958 41.848A16 16 0 0 1 48 57a16 16 0 0 1-15.958-14.848A16 16 0 0 0 32 43a16 16 0 0 0 16 16 16 16 0 0 0 16-16 16 16 0 0 0-.043-1.152z"/><circle style="fill:#69db3e" cx="48" cy="42" r="16"/><path style="fill:#fff" d="M42 34h4v13h-4z" transform="rotate(-45 48.218 42.232)"/><path style="fill:#fff" transform="rotate(-135 1.753 26.492)" d="M-47 42h4v18h-4z"/></svg>

<svg xmlns="http://www.w3.org/2000/svg" width="64" height="64" version="1">
 <path style="opacity:0.2" d="M 4.0508,32 C 4.039,32.334 4,32.662 4,33 4,48.512 16.488,61 32,61 47.512,61 60,48.512 60,33 c 0,-0.33768 -0.03904,-0.66528 -0.05078,-1 -0.528,15.042 -12.776,27 -27.95,27 -15.1744,0 -27.422,-11.958 -27.95,-27 z"/>
 <rect style="fill:#4f4f4f" width="56" height="56" x="4" y="4" rx="28" ry="28"/>
 <g style="opacity:0.2" transform="matrix(2,0,0,2,0,1)">
  <path d="M 10.016,13.09 A 6,6 0 0 0 5,19 6,6 0 0 0 11,25 6,6 0 0 0 15.773,22.629 8,8 0 0 1 12.965,21.26 3,3 0 0 1 11,22 3,3 0 0 1 8,19 3,3 0 0 1 9.9102,16.205 8,8 0 0 1 9.8008,14.9 8,8 0 0 1 10.016,13.09 Z"/>
  <path d="m 16,5 a 6,6 0 0 0 -6,6 6,6 0 0 0 0.33789,1.957 8,8 0 0 1 2.6719,-1.7715 3,3 0 0 1 -0.01,-0.186 3,3 0 0 1 3,-3 3,3 0 0 1 3,3 3,3 0 0 1 -0.0098,0.1875 8,8 0 0 1 2.6738,1.7676 6,6 0 0 0 0.336,-1.955 6,6 0 0 0 -6,-6 z"/>
  <circle cx="16" cy="11" r="2"/>
  <circle cx="11" cy="19" r="2"/>
 </g>
 <path style="opacity:0.1;fill:#ffffff" d="M 32 4 C 16.488 4 4 16.488 4 32 C 4 32.113556 4.0112845 32.224032 4.0175781 32.335938 C 4.3691213 17.134181 16.710728 5 32 5 C 47.287972 5 59.630821 17.13209 59.984375 32.332031 C 59.990631 32.221433 60 32.112217 60 32 C 60 16.488 47.512 4 32 4 z"/>
 <path style="fill:#e16262" d="M 20.032,26.18 A 12,12 0 0 0 10,38 12,12 0 0 0 22,50 12,12 0 0 0 31.546,45.258 16,16 0 0 1 25.93,42.52 6,6 0 0 1 22,44 6,6 0 0 1 16,38 6,6 0 0 1 19.8204,32.41 16,16 0 0 1 19.6016,29.8 16,16 0 0 1 20.032,26.18 Z"/>
 <path style="fill:#3facd2" d="M 32,10 A 12,12 0 0 0 20,22 12,12 0 0 0 20.676,25.914 16,16 0 0 1 26.02,22.372 6,6 0 0 1 26,22 a 6,6 0 0 1 6,-6 6,6 0 0 1 6,6 6,6 0 0 1 -0.02,0.376 16,16 0 0 1 5.348,3.534 A 12,12 0 0 0 44,22 12,12 0 0 0 32,10 Z"/>
 <circle style="fill:#8ccde4" cx="32" cy="22" r="4"/>
 <circle style="fill:#eb9595" cx="22" cy="38" r="4"/>
 <path style="opacity:0.2" d="M 63.958,41.848 A 16,16 0 0 1 48,57 16,16 0 0 1 32.042,42.152 16,16 0 0 0 32,43 16,16 0 0 0 48,59 16,16 0 0 0 64,43 16,16 0 0 0 63.95704,41.84766 Z"/>
 <circle style="fill:#69db3e" cx="48" cy="42" r="16"/>
 <g transform="matrix(0.70710678,-0.70710678,0.70710678,0.70710678,-15.740115,46.464466)">
  <rect style="fill:#ffffff" width="4" height="13" x="42" y="34"/>
  <rect style="fill:#ffffff" width="4" height="18" x="-47" y="42" transform="matrix(0,-1,1,0,0,0)"/>
 </g>
</svg>
